X:17
T:Kitty Mac Gee
O:Irlande
C:Trad.
R:Jig
M:6/8
Q:3/8=120
L:1/8
K:C
G |: "C"c2c GEG | "F"c2c def | "C"e2c "F"d2c | "G"BdB G2G |\
"C"c2c GEG | "F"c2c def | "C"e2c "G"d2B | "C"c3 c2G ::
"C"c2e gec | "F"d2e f2f | "C"e2c "F"d2c | "G"BdBG3 |\
"C"g2g f2e | "F" d2e f2f | "C"edc "G"dcB |1 "C"c3c2e :|2 "C"c3 c2z |]
